X:1
T:Title
%%score { ( 1 4 ) | ( 2 3 ) }
L:1/8
Q:1/4=100
M:4/4
K:A
V:1 treble nm="Grand Piano"
V:4 treble 
V:2 bass 
V:3 bass 
V:1
 [CE]2 [EA]>[EB] [Ec]3 [Ec] | [Dd][Ec][FB]F A2 G2 | E2 G>B [Gd]3 [Gd] | %3
w: Ira~B.~Wilson * * * *|||
 [Gd][Gd][EGc][DGB] [^DF=c]2 ^c2 | [A,CE]2 [A,EA]>[EB] [Ec]3 c | eABc [Fd]4 | %6
w: |||
 [Fd]2 [Ec]>[EGB] [EAe]3 [CFA] | [EFc][DFB][CEA][B,DG] [A,CA]4 | [Ec]2 [DB]c [Ge]2 [Fd]e | %9
w: |||
 [Fd]4 [Ec]4 | [^Ec]2 [EG]A [GB]2 [Ec]G | [FA]6 z2 | [FA]2 [^EG]A [GB]2 AF | E4 [Ec]4 | %14
w: |||||
 [Ge]2 [GB]c [Fd]2 cB | [CA]6 z2 |] %16
w: ||
V:2
 [A,,A,]2 [C,A,]>[E,G,] [A,,A,]3 [^A,,F,] | z4 C2 z2 | E,2 G,>B, [E,B,]3 [E,B,] | z4 A,4 | %4
 A,,2 C,>[E,G,] [A,,A,]3[K:treble] [A,E] | [A,C=G][A,CG][A,B,G][A,G][K:bass] [D,A,]4 | %6
 [B,,B,]2 [E,G,]>D, C,3 F, | B,,B,,E,E, A,,4 | z2 [E,G,]2 z2 [E,G,D]2 | A,,2 E,E, [E,A,C]2 E,2 | %10
 z2[K:treble] [G,B,C]2[K:bass] z2 [G,B,C]2 | F,,2 F,F, F,2 F,2 | z2 [F,A,D]2 z2 [F,G,]2 | %13
 E,,2 E,E, [E,A,C]2 E,2 | E,,2 z A E,,2 [DE]D | z2[K:treble] z E- E2 z2 |] %16
V:3
 x8 | [B,,F,][C,F,][D,F,][^D,B,] [E,E]2- [E,B,E]2 | x8 | [E,B,][E,B,]E,E, z2 E2 | x7[K:treble] x | %5
 x4[K:bass] x4 | x8 | x8 | E,,2 z E E,,2 z G | x8 | G,,2[K:treble] z F[K:bass] C,2 z ^E | x8 | %12
 D,,2 z F D,,2 [DF]D | x8 | z2 [E,G,D]2 z2 [E,G,]2 | A,,[K:treble]E .^D2 A,2 z2 |] %16
V:4
 x8 | x8 | x8 | x8 | x8 | x8 | x8 | x8 | x8 | z2 [A,C][A,C] z2 [A,C]2 | x8 | %11
 z2 [A,C][A,C] [A,C]2 [A,C]2 | x8 | C2 [A,C][A,C] z2 [A,C]2 | x8 | x8 |] %16

